sabine/images/noise/box.svg

<?xml version="1.0" encoding="UTF-8" standalone="no"?>
<svg
   xmlns:dc="http://purl.org/dc/elements/1.1/"
   xmlns:cc="http://creativecommons.org/ns#"
   xmlns:rdf="http://www.w3.org/1999/02/22-rdf-syntax-ns#"
   xmlns:svg="http://www.w3.org/2000/svg"
   xmlns="http://www.w3.org/2000/svg"
   id="svg3354"
   version="1.1"
   viewBox="0 0 128 128"
   height="160"
   width="160">
  <metadata
     id="metadata3373">
    <rdf:RDF>
      <cc:Work
         rdf:about="">
        <dc:format>image/svg+xml</dc:format>
        <dc:type
           rdf:resource="http://purl.org/dc/dcmitype/StillImage" />
        <dc:title></dc:title>
      </cc:Work>
    </rdf:RDF>
  </metadata>
  <defs
     id="defs3371" />
  <g
     transform="matrix(1.0552303,0,0,1.0552303,-3.5327061,-2.1020523)"
     id="#191919ff">
    <path
       style="opacity:1;fill:#191919"
       id="path3357"
       d="m 10.98,25 c -0.3,-1.89 0.73,-4.27 2.98,-3.96 14.14,-0.19 28.3,0.17 42.44,-0.17 0.93,1.18 1.83,2.49 1.62,4.09 -0.03,26.35 -0.03,52.71 0,79.06 0.23,1.62 -0.7,2.91 -1.63,4.11 -14.61,-0.23 -29.24,-0.2 -43.85,-0.01 -0.89,-1.22 -1.77,-2.53 -1.56,-4.13 0.03,-26.33 0.04,-52.66 0,-78.99 m 18.45,10.64 c -4.61,2.09 -7.64,7.33 -6.71,12.38 0.86,6.05 7.2,10.62 13.22,9.47 C 42.16,56.69 46.72,50.11 45.38,44 44.26,37 35.85,32.46 29.43,35.64 m 0.78,29.54 C 21.93,67.06 15.52,75.48 16.68,84.04 17.53,93.4 26.91,100.6 36.15,99.58 45.73,99.04 53.96,89.74 52.47,80.07 51.38,69.77 40.12,62.41 30.21,65.18 Z" />
    <path
       style="opacity:1;fill:#191919"
       id="path3359"
       d="m 69.98,24.94 c -0.29,-1.86 0.74,-4.16 2.94,-3.9 13.39,-0.11 26.79,0.01 40.19,-0.06 1.86,-0.28 4.14,0.77 3.85,2.97 0.11,26.68 -0.02,53.37 0.06,80.06 0.28,1.84 -0.69,4.19 -2.9,3.95 -14.17,0.18 -28.37,-0.15 -42.54,0.16 -0.9,-1.19 -1.81,-2.47 -1.6,-4.05 0.03,-26.38 0.03,-52.76 0,-79.13 m 18.49,10.68 c -4.63,2.08 -7.69,7.34 -6.75,12.41 0.86,6.04 7.19,10.59 13.2,9.47 6.21,-0.79 10.78,-7.35 9.47,-13.46 -1.09,-7 -9.48,-11.57 -15.92,-8.42 m 0.74,29.56 c -6.94,1.64 -12.67,7.73 -13.52,14.87 -0.96,6.94 2.93,14.12 9.1,17.34 6.41,3.65 14.96,2.8 20.55,-2 5.68,-4.54 7.88,-12.89 5.01,-19.6 C 107.17,67.67 97.62,62.94 89.21,65.18 Z" />
    <path
       style="opacity:1;fill:#191919"
       id="path3361"
       d="m 30.48,39.65 c 5.28,-3.44 12.75,2.41 10.84,8.36 -1.13,5.18 -8.26,7.51 -12.09,3.74 -3.99,-3.08 -3.19,-9.84 1.25,-12.1 z" />
    <path
       style="opacity:1;fill:#191919"
       id="path3363"
       d="m 89.5,39.64 c 5.27,-3.41 12.71,2.41 10.82,8.34 -1.11,5.19 -8.24,7.54 -12.08,3.78 -4.01,-3.09 -3.2,-9.87 1.26,-12.12 z" />
    <path
       style="opacity:1;fill:#191919"
       id="path3365"
       d="m 29.44,69.66 c 7.03,-2.96 16,0.99 18.4,8.25 2.68,6.85 -1.91,14.97 -8.79,16.99 -7.37,2.73 -16.49,-2.13 -18.13,-9.87 -1.64,-6.35 2.54,-13.13 8.52,-15.37 z" />
    <path
       style="opacity:1;fill:#191919"
       id="path3367"
       d="m 88.42,69.67 c 7.03,-2.98 16.02,0.97 18.42,8.25 2.69,6.85 -1.92,14.97 -8.8,16.98 -7.37,2.72 -16.48,-2.13 -18.11,-9.86 -1.66,-6.34 2.52,-13.12 8.49,-15.37 z" />
  </g>
</svg>

<?xml version="1.0" encoding="UTF-8" ?>
<!DOCTYPE svg PUBLIC "-//W3C//DTD SVG 1.1//EN" "http://www.w3.org/Graphics/SVG/1.1/DTD/svg11.dtd">
<svg width="128pt" height="128pt" viewBox="0 0 128 128" version="1.1" xmlns="http://www.w3.org/2000/svg">
<g id="#191919ff">
<path fill="#191919" opacity="1.00" d=" M 10.98 25.00 C 10.68 23.11 11.71 20.73 13.96 21.04 C 28.10 20.85 42.26 21.21 56.40 20.87 C 57.33 22.05 58.23 23.36 58.02 24.96 C 57.99 51.31 57.99 77.67 58.02 104.02 C 58.25 105.64 57.32 106.93 56.39 108.13 C 41.78 107.90 27.15 107.93 12.54 108.12 C 11.65 106.90 10.77 105.59 10.98 103.99 C 11.01 77.66 11.02 51.33 10.98 25.00 M 29.43 35.64 C 24.82 37.73 21.79 42.97 22.72 48.02 C 23.58 54.07 29.92 58.64 35.94 57.49 C 42.16 56.69 46.72 50.11 45.38 44.00 C 44.26 37.00 35.85 32.46 29.43 35.64 M 30.21 65.18 C 21.93 67.06 15.52 75.48 16.68 84.04 C 17.53 93.40 26.91 100.60 36.15 99.58 C 45.73 99.04 53.96 89.74 52.47 80.07 C 51.38 69.77 40.12 62.41 30.21 65.18 Z" />
<path fill="#191919" opacity="1.00" d=" M 69.98 24.94 C 69.69 23.08 70.72 20.78 72.92 21.04 C 86.31 20.93 99.71 21.05 113.11 20.98 C 114.97 20.70 117.25 21.75 116.96 23.95 C 117.07 50.63 116.94 77.32 117.02 104.01 C 117.30 105.85 116.33 108.20 114.12 107.96 C 99.95 108.14 85.75 107.81 71.58 108.12 C 70.68 106.93 69.77 105.65 69.98 104.07 C 70.01 77.69 70.01 51.31 69.98 24.94 M 88.47 35.62 C 83.84 37.70 80.78 42.96 81.72 48.03 C 82.58 54.07 88.91 58.62 94.92 57.50 C 101.13 56.71 105.70 50.15 104.39 44.04 C 103.30 37.04 94.91 32.47 88.47 35.62 M 89.21 65.18 C 82.27 66.82 76.54 72.91 75.69 80.05 C 74.73 86.99 78.62 94.17 84.79 97.39 C 91.20 101.04 99.75 100.19 105.34 95.39 C 111.02 90.85 113.22 82.50 110.35 75.79 C 107.17 67.67 97.62 62.94 89.21 65.18 Z" />
<path fill="#191919" opacity="1.00" d=" M 30.48 39.65 C 35.76 36.21 43.23 42.06 41.32 48.01 C 40.19 53.19 33.06 55.52 29.23 51.75 C 25.24 48.67 26.04 41.91 30.48 39.65 Z" />
<path fill="#191919" opacity="1.00" d=" M 89.50 39.64 C 94.77 36.23 102.21 42.05 100.32 47.98 C 99.21 53.17 92.08 55.52 88.24 51.76 C 84.23 48.67 85.04 41.89 89.50 39.64 Z" />
<path fill="#191919" opacity="1.00" d=" M 29.44 69.66 C 36.47 66.70 45.44 70.65 47.84 77.91 C 50.52 84.76 45.93 92.88 39.05 94.90 C 31.68 97.63 22.56 92.77 20.92 85.03 C 19.28 78.68 23.46 71.90 29.44 69.66 Z" />
<path fill="#191919" opacity="1.00" d=" M 88.42 69.67 C 95.45 66.69 104.44 70.64 106.84 77.92 C 109.53 84.77 104.92 92.89 98.04 94.90 C 90.67 97.62 81.56 92.77 79.93 85.04 C 78.27 78.70 82.45 71.92 88.42 69.67 Z" />
</g>
</svg>
